X:191
T:ASHER
C:by Rodney Miller
N:TablEdited by Mike Black
L:1/8
Q:1/4=200
M:4/4
K:D
z6 DE |: "D"FE FA d2 de | fd ed Bd ef | "Em"g2 eg "D/F#"fd ad | "G"Bd AF "A"ED EF | 
"D"DE FA dc de | fd ed Bd ef | "G"g2 eg "D"fd ad |1 A"A"F ED "D"D2 DE :|2 A"A"F ED "D"D4 | 
|: "Dm"D2 DE =F2 DE | =FE D=C A,4 | "Em"E2 E=F G2 G2 | "Dm"^G2 G2 "G"=G=F D=C | 
"Dm"D2 DE =F2 DE | =FE D=C A,4 | "Em"E2 E=F G2 {G}^G2 | "G"G=F D=C "Dm"D4 :| 
 

